www/assets/icons/api.svg

<svg xmlns="http://www.w3.org/2000/svg" width="24" height="24" viewBox="0 0 24 24" fill='currentColor'><path d="m14 12-2 2-2-2 2-2zm-2-6 2.12 2.12 2.5-2.5L12 1 7.38 5.62l2.5 2.5zm-6 6 2.12-2.12-2.5-2.5L1 12l4.62 4.62 2.5-2.5zm12 0-2.12 2.12 2.5 2.5L23 12l-4.62-4.62-2.5 2.5zm-6 6-2.12-2.12-2.5 2.5L12 23l4.62-4.62-2.5-2.5z"/></svg>

<svg width="24" height="24" viewBox="0 0 24 24" xmlns="http://www.w3.org/2000/svg" fill='currentColor'><path d="M14 12L12 14L10 12L12 10L14 12ZM12 6L14.12 8.12L16.62 5.62L12 1L7.38 5.62L9.88 8.12L12 6ZM6 12L8.12 9.88L5.62 7.38L1 12L5.62 16.62L8.12 14.12L6 12ZM18 12L15.88 14.12L18.38 16.62L23 12L18.38 7.38L15.88 9.88L18 12ZM12 18L9.88 15.88L7.38 18.38L12 23L16.62 18.38L14.12 15.88L12 18Z"/></svg>
